!!!COM: Rimsky Korsakov, Nikolaï
!!!OPR: Pratical manual of harmony
!!!XEN: Modulation
!!!OTL: 3-17c. A minor to G Major
!!!ENC: Laurent Feisthauer and Nestor Napoles Lopez
**kern	**kern	**kern	**kern	**text
*staff4	*staff3	*staff2	*staff1	*
*clefF4	*clefF4	*clefG2	*clefG2	*
*k[]	*k[]	*k[]	*k[]	*
*C:	*C:	*C:	*C:	*
*M2/2	*M2/2	*M2/2	*M2/2	*
2A\	2c/	1e\	2a/	.
2G#\	2B/	.	2b/	.
=1	=1	=1	=1	=1
2A\	2A/	1e\	2c/	.
2AA\	2c/	.	2a/	.
=2	=2	=2	=2	=2
2C\	2c/	2e\	2g/	.
2D\	2A/	2d\	2f/	.
=3	=3	=3	=3	=3
2E\	1G#/	1B\	1e/	.
2D\	.	.	.	.
=4	=4	=4	=4	=4
1C\	2E/	2A\	2e/	.
.	2E-/	2A\	2f#/	.
=5	=5	=5	=5	=5
2BB\	2D/	2d\	1g/[	.
2C\	2E-/	2c\	.	.
=6	=6	=6	=6	=6
1D\	1D/	2B\	2g/]	.
.	.	2c\	2f#/	.
=7	=7	=7	=7	=7
1GG\	1D/	1B\	1g/	.
==	==	==	==	==
!!!filter: satb2gs
!!!filter: autobeam
*-	*-	*-	*-	*-
